svgs/themed_icon_calendar_17.svg

<svg height="192" width="192" xmlns="http://www.w3.org/2000/svg"><path d="M146 30H46c-8.837 0-16 7.163-16 16v100c0 8.837 7.163 16 16 16h75.373a16 16 0 0 0 11.313-4.686l24.628-24.628A16 16 0 0 0 162 121.373V46c0-8.837-7.163-16-16-16Z" stroke="#000" stroke-width="12" fill="none"/><path d="M64.852 120c-3.168 0-4.752-1.536-4.752-4.608 0-3.024 1.584-4.536 4.752-4.536h7.272V81.624l-5.256 3.168c-1.392.816-2.64 1.032-3.744.648s-1.944-1.104-2.52-2.16c-.576-1.056-.744-2.184-.504-3.384.24-1.248 1.032-2.304 2.376-3.168l10.008-6.048a17.78 17.78 0 0 1 3.024-1.512c1.056-.384 2.088-.576 3.096-.576 1.44 0 2.568.384 3.384 1.152.864.768 1.296 1.896 1.296 3.384v37.728h6.552c3.12 0 4.68 1.512 4.68 4.536 0 3.072-1.56 4.608-4.68 4.608H64.852Zm43.028.648c-2.112 0-3.576-.696-4.392-2.088-.816-1.392-.696-3.048.36-4.968l18.936-35.136h-19.872c-3.216 0-4.824-1.536-4.824-4.608 0-3.072 1.608-4.608 4.824-4.608h27.432c1.536 0 2.784.408 3.744 1.224 1.008.816 1.512 1.968 1.512 3.456 0 1.296-.192 2.424-.576 3.384-.336.96-.792 1.992-1.368 3.096l-19.44 36.648c-1.296 2.4-3.408 3.6-6.336 3.6Z"/></svg>

<?xml version="1.0" encoding="UTF-8" standalone="no"?><svg xmlns:android="http://schemas.android.com/apk/res/android" height="192" width="192" xmlns="http://www.w3.org/2000/svg">
  <path d="M146,30H46C37.163,30 30,37.163 30,46V146C30,154.837 37.163,162 46,162H121.373C125.616,162 129.686,160.314 132.686,157.314L157.314,132.686C160.314,129.686 162,125.616 162,121.373V46C162,37.163 154.837,30 146,30Z" fill="#000000" fill-opacity="0.0" stroke="#000000" stroke-width="12"/>
  <path d="M64.852,120C61.684,120 60.1,118.464 60.1,115.392C60.1,112.368 61.684,110.856 64.852,110.856H72.124V81.624L66.868,84.792C65.476,85.608 64.228,85.824 63.124,85.44C62.02,85.056 61.18,84.336 60.604,83.28C60.028,82.224 59.86,81.096 60.1,79.896C60.34,78.648 61.132,77.592 62.476,76.728L72.484,70.68C73.492,70.056 74.5,69.552 75.508,69.168C76.564,68.784 77.596,68.592 78.604,68.592C80.044,68.592 81.172,68.976 81.988,69.744C82.852,70.512 83.284,71.64 83.284,73.128V110.856H89.836C92.956,110.856 94.516,112.368 94.516,115.392C94.516,118.464 92.956,120 89.836,120H64.852ZM107.88,120.648C105.768,120.648 104.304,119.952 103.488,118.56C102.672,117.168 102.792,115.512 103.848,113.592L122.784,78.456H102.912C99.696,78.456 98.088,76.92 98.088,73.848C98.088,70.776 99.696,69.24 102.912,69.24H130.344C131.88,69.24 133.128,69.648 134.088,70.464C135.096,71.28 135.6,72.432 135.6,73.92C135.6,75.216 135.408,76.344 135.024,77.304C134.688,78.264 134.232,79.296 133.656,80.4L114.216,117.048C112.92,119.448 110.808,120.648 107.88,120.648Z" fill="#000000"/>
</svg>
